X: 796
T: Philip O'Neill.
C:F. O'Neill.
B:O'Neill's Music of Ireland
N:O'Neill's - 796
Z:Transcribed by Stephen Foy (shf@access.digex.net)
Z:abc 1.6
R:Jig
M:6/8
K:G
DBB B2 d|cAA A2 c|BGG GFG|ABG FED|\
DBB Bcd|cAA ABc|dGG DGG|BGG G2:|
||Bcd def|gfe fdB|ded dBG|GAG FED|\
Bcd def|gfe gdB|dGG DGG|BGG G2:|


